X:292
T:Tie the Ribbons (reel) 
B:CRE2.284 (Ceangal na RibinÃÂÃÂÃÂÃÂ­)
F:file ID: cre.2/292tie_r
N:Just for the record, line 3 in CRE is typeset upside-down!
L:1/8
M:C
R:reel % A-B-A
Q:180
K:G
A|BGEF G2 (3DEF|G2BG EFGc|BGEF G2Bd|gefd Beed|
BGEF G2 (3DEF|G2BG EFGc|BGEF G2Bd|gefd Bde||
f|gfga beeg|fdad fddf|gfga beef|gfed Bdef|
gfga beeg|fdad fddf|gbba faaf|gfed Bded||

%%%

